X:1
T:Title
%%score { ( 1 4 ) | ( 2 3 ) }
L:1/8
M:4/4
K:A
V:1 treble nm="Grand Piano"
V:4 treble 
V:2 bass 
V:3 bass 
V:1
 z4 z2[Q:1/4=106] [CE]2 | [CA]2 [EA]>B c2 E>E | F4 A2 F2 | (3[CE][CE][CE] [EA]>B c2 B>A | B6 E2 | %5
 [CA]2 [EA]>B c2 E>E | F4 A2 F2 | (3EEE A>B c2 c>B |[M:3/4] [CA]6 |[M:1/4] [A,CE]2 | %10
[M:4/4] (3[CEA][CEA][CEA] [A,EA]>B c2 B>A |[M:3/4] e6 |[M:1/4] E2 |[M:4/4] (3ccc c>c c2 B>A | %14
[M:3/4] B6 |[M:1/4] cd |[M:4/4] e>e e>c A2 [EA]>[EG] |[M:3/4] F>F F>F [FA]2 |[M:1/4] F2 | %19
[M:4/4] (3EEE A>B c2 c>B |[M:3/4] [CA]6 |] %21
V:2
 z4 z2 [A,,A,]2 | [A,,A,]2 [C,A,]>[E,G,E] [A,E]2 [C,A,]>[C,A,] | D4 F2 [D,A,D]2 | %3
 (3[A,,A,][A,,A,][A,,A,] [C,A,]>[E,G,E] [A,E]2 [E,G,E]>[F,A,C] | [E,G,E]6 [E,G,]2 | %5
 [A,,A,]2 [C,A,]>[E,G,E] [A,E]2 [C,A,]>[C,A,] | D4 F2 [D,A,D]2 | %7
 (3[E,A,C][E,A,C][E,A,C] [E,A,C]>[E,A,D] [E,A,E]2 [E,A,E]>[E,D] |[M:3/4] [A,,E,]6 |[M:1/4] A,,2 | %10
[M:4/4] (3A,,A,,A,, C,>[E,G,E] [A,E]2 [G,B,E]>[F,B,F] |[M:3/4] B,2 (3EDC B,2 |[M:1/4] [E,G,]2 | %13
[M:4/4] (3[A,E][A,E][A,E] [A,E]>[A,E] [A,E]2 [E,G,E]>[F,A,C] | %14
[M:3/4] [G,E]2 (3A,B,[K:treble]C B,2 |[M:1/4] [A,A]2 | %16
[M:4/4] [A,CA]>[A,CA] [A,CA]>[A,EA][K:bass] [A,CE]2 [C,A,]>[C,A,] | %17
[M:3/4] [D,A,D]>[D,A,D] [D,A,D]>[D,A,D] [D,A,]2 |[M:1/4] [D,A,D]2 | %19
[M:4/4] (3[E,A,C][E,A,C][E,A,C] [E,A,C]>[E,A,D] [E,A,E]2 [E,A,E]>[E,D] |[M:3/4] [A,,E,]6 |] %21
V:3
 x8 | x8 | [D,A,]6 z2 | x8 | x8 | x8 | [D,A,]6 z2 | x8 |[M:3/4] x6 |[M:1/4] x2 |[M:4/4] x8 | %11
[M:3/4] E,6 |[M:1/4] x2 |[M:4/4] x8 |[M:3/4] E,6[K:treble] |[M:1/4] z B, |[M:4/4] x4[K:bass] x4 | %17
[M:3/4] x6 |[M:1/4] x2 |[M:4/4] x8 |[M:3/4] x6 |] %21
V:4
 x8 | x8 | x8 | x8 | x8 | x8 | x8 | x8 |[M:3/4] x6 |[M:1/4] x2 |[M:4/4] x8 |[M:3/4] G2 (3cBA G2 | %12
[M:1/4] x2 |[M:4/4] x8 |[M:3/4] z2 (3FGA G2 |[M:1/4] x2 |[M:4/4] x8 |[M:3/4] x6 |[M:1/4] x2 | %19
[M:4/4] x8 |[M:3/4] x6 |] %21

